!!!!SEGMENT: pl-wtm--r-1418_stefani-jozef--marsz-podchorazych.krn
!!!cenid: 18xx:2039
!!!COM: Stefani, Józef
!!!COM-rismID: pe30024097
!!!CDT: 1800/04/16-1876/03/19
!!!CNT: Polish
!!!OTL: Marsz Podchorążych
!!!PDT:
!!!AGN: Secular; March
!!!YEC: Copyright 2022 Narodowy Instytut Fryderyka Chopina (https://polishscores.org)
!!!YEM: License CC-BY-4.0 (https://creativecommons.org/licenses/by/4.0)
!!!SMS-siglum: PL-Wtm
!!!SMS-shelfmark: R 1418
!!!SMS-shelfwork: W
!!!SMS-variant:
!!!SMS-altvar:
!!!NIFC-rismSourceID: 1001116006
!!!NIFC-rismChildID: 1001116006
!!!NIFC-islandoraID:
!!!URL-pdf-islandora:
!!!URL-scan:
!!!IIIF:
!!!ONB-nifc: UWAGA: utwory w zbiorze: 1. Bitwa pod Ostrołęką, 2. Marsz połączonych Polaków, 3. Marsz Podchorążych, 4. Polonez. Każdy utwór ma własną sygnaturę (R 1416-1419)
!!!AIN: 1 forte
!!!key:
**kern	**kern	**dynam
*part1	*part1	*
*staff2	*staff1	*
*Iforte	*Iforte	*
*I"Fortepian	*I"Fortepian	*
*clefF4	*clefG2	*
*k[]	*k[]	*
*C:	*C:	*
*M2/4	*M2/4	*
*>[A,A,B,B,C,C,D,D,A,A,B,B]	*>[A,A,B,B,C,C,D,D,A,A,B,B]	*>[A,A,B,B,C,C,D,D,A,A,B,B]
*>A	*>A	*>A
!	!	!LO:DY:t=f.
16.G\LL	16.g/LL	f
32G\JJk	32g/JJk	.
=1	=1	=1
8cL 8C\	8ccL 8e\	.
16.G\L	16.g\L	.
32G\JJk	32g\JJk	.
8cL 8C\	8ccL 8e\	.
16.G\L	16.g\L	.
32G\JJk	32g\JJk	.
=2	=2	=2
8cL 8G 8C\	16.ccLL 16.e\	.
.	32e\K	.
8cJ 8G 8C\	16.g\	.
.	32cc\JJk	.
4c 4G 4E\	4ee 4e\	.
=3	=3	=3
8AL 8AA\	8eeL 8cc 8a\	.
8EJ 8BB\	16.eeL 16.b 16.g#X\	.
.	32eeJJk 32b 32g#\	.
8AL 8AA\	8eeL 8cc 8a\	.
8DJ 8BB\	16.eeL 16.b 16.g#\	.
.	32eeJJk 32b 32g#\	.
=4	=4	=4
8AL 8AA\	16.eeLL 16.cc 16.a\	.
.	32ddK 32b\	.
8GJ 8GG\	16.ee 16.cc\	.
.	32ffJJk 32dd\	.
4C 4CC/	4gg 4ee\	.
=5	=5	=5
*	*^	*
8cL 8G 8C\	16.ee/LL	8g\L	p
.	32dd/K	.	.
8cJ 8G 8C\	16.cc/	8f\J	.
.	32dd/JJk	.	.
4c 4G 4C\	4ee 4g\	4ryy	.
*	*v	*v	*
=6	=6	=6
!LO:TX:a:t=P:problem=mixed beam	!	!
8GL 8GG/	(8ggL 8dd 8b\	.
8fJ 8d 8G\	16ggL 16dd 16b\	.
.	16ggJJ 16dd 16b\	.
!LO:TX:a:t=P:problem=mixed beam	!	!
8GL 8GG/	8ggL 8dd 8b\	.
8fJ 8d 8G\	8ggJ 8dd 8b\)	.
=7	=7	=7
!	!LO:TX:a:t=P:problem=powtórka oznaczona łukiem i adnotacją"2"	!
!LO:TX:a:t=P:problem=mixed beam	!	!
8GLyy 8GG/yy	(y8ggLyy 8ddyy 8b\yy	.
8fJyy 8dyy 8G\yy	16ggLyy 16ddyy 16b\yy	.
.	16ggJJyy 16ddyy 16b\yy	.
!LO:TX:a:t=P:problem=mixed beam	!	!
8GLyy 8GG/yy	8ggLyy 8ddyy 8b\yy	.
8fJyy 8dyy 8G\yy	8ggJyy 8ddyy 8b\)yy	.
=8	=8	=8
!LO:TX:a:t=P:problem=mixed beam	!	!
8DL 8DD/	8ddL 8d\	.
8dJ 8B 8G\	16ggL 16g\	.
.	16aaJJ 16a\	.
8dL 8B 8G\	16bbLL 16b\	.
.	16ccc 16cc\	.
8dJ 8B 8G\	16ccc#X 16cc#X\	.
.	16dddJJ 16dd\	<
=9	=9	=9
8dL 8c 8A\	16.eeeLL 16.ee\	.
.	32dddK 32dd\	.
8dJ 8c 8A\	16.eee 16.ee\	.
.	32fff#XJJk 32ff#X\	.
4d 4B 4G\	4ggg 4gg\	[
=10:|!|:	=10:|!|:	=10:|!|:
*>B	*>B	*>B
8EL 8EE/	8eeL 8e\	f
!LO:N:vis=16	!	!
16.BB/L	16.b\L	.
32BB/JJk	32b\JJk	.
8EL 8EE/	8eeL 8e\	.
16.BB/L	16.b\L	.
32BB/JJk	32b\JJk	.
=11	=11	=11
8EL 8EE/	16eeLL 16e\	.
.	16ff#X 16dd#X\	.
8BJ 8BB/	16gg 16ee\	.
.	16aaJJ 16ff#\	.
8BL 8E/	8bbL 8gg\	.
8GJ 8D/	8dddJ 8bb\	.
=12	=12	=12
8cL 8C\	8cccL 8cc\	.
16.GL 16.C\	16.ggL 16.ee\	.
32GJJk 32C\	32ggJJk 32ee\	.
8cL 8C\	8cccL 8cc\	.
16.GL 16.C\	16.ggL 16.ee\	.
32GJJk 32C\	32ggJJk 32ee\	.
=13	=13	=13
8cL 8C\	16.cccLL 16.cc\	.
.	32dddK 32dd\	.
8cJ 8C\	16.eee 16.ee\	.
.	32fffJJk 32ff\	.
8cL 8C\	4ggg 4gg\	.
8B-XJ 8BB-X\	.	.
=14	=14	=14
8AL 8AA\	8aaaL 8aa\	.
8eJ 8c#X 8A\	16.eeeL 16.ccc 16.aa\	.
.	32eeeJJk 32ccc 32aa\	.
8AL 8AA\	16.aaaLL 16.aa\	.
.	32gggK 32gg\	.
8eJ 8c# 8A\	16.fff 16.ff\	.
.	32eeeJJk 32ee\	.
!!LO:LB:g=original
=15	=15	=15
8CL 8CC/	16.fffLL 16.ff\	.
.	32gggK 32gg\	.
16.DL 16.DD/	16.fff 16.ff\	.
32EJJk 32EE/	32eeeJJk 32ee\	.
16.FLL 16.FF\	16.dddLL 16.dd\	.
32F#XK 32FF#X\	32cccK 32cc\	.
16.G 16.GG\	16.bb 16.b\	.
32AJJk 32AA\	32aaJJk 32a\	.
=16	=16	=16
8BL 8BB\	16.ggLL 16.g\	.
.	32ff#XK 32f#X\	.
8GJ 8GG\	16.gg 16.g\	<
.	32aaJJk 32a\	.
4f 4d 4G\	16.bbLL 16.b\	.
.	32cccK 32cc\	.
.	16.ddd 16.dd\	.
.	32eeeJJk 32ee\	[[
=17	=17	=17
*tremolo	*8va	*
8fL 8d 8G\	16.fffLL 16.ff\	<
.	32gggK 32gg\	.
8fJ 8d 8G\	16.aaa 16.aa\	.
*Xtremolo	*	*
.	32bbbJJk 32bb\	.
4e 4c\	4cccc 4ccc\	[[
!	!LO:TX:a:t=loco	!
*	*X8va	*
=18:|!	=18:|!	=18:|!
!!!OMD: Trio.
*>C	*>C	*>C
*k[b-]	*k[b-]	*
*M2/4	*M2/4	*
!	!	!LO:DY:rj:t=p.
8FL 8FF\	8.aaL 8.ff\	p
8f 8c 8A\	.	.
.	16bb-Jk 16gg\	.
8f 8c 8A\	8cccL 8aa\	.
8fJ 8c 8A\	8cccJ 8aa\	.
=19	=19	=19
*rep	*	*
8FL 8FF\	8cccL 8aa\	.
8f 8c 8A\	8cccJ 8aa\	.
8f 8c 8A\	16dddLL 16bb-\	.
.	16ccc 16aa\	.
8fJ 8c 8A\	16bb- 16gg\	.
.	16aaJJ 16ff\	.
*Xrep	*	*
=20	=20	=20
!LO:TX:a:t=P:problem=mixed beam	!	!
8CL 8CC/	8ggL 8ee\	.
8e 8c 8G\	8ggJ 8ee\	.
8e 8c 8G\	8.cccL 8.cc\	.
8eJ 8c 8G\	.	.
.	16bb-Jk 16gg\	.
=21	=21	=21
*^	*	*
8F 8FF/	8FF\	8bb-L 8gg\	.
8fL 8c 8A\	4.ryy	8aaJ 8ff\	.
8f 8c 8A\	.	8aa 8ff\	.
8fJ 8c 8A\	.	8r	.
=22	=22	=22	=22
*rep	*rep	*	*
8F 8FF/	8FF\	8.aaL 8.ff\	.
8fL 8c 8A\	4.ryy	.	.
.	.	16bb-Jk 16gg\	.
8f 8c 8A\	.	8cccL 8aa\	.
8fJ 8c 8A\	.	8cccJ 8aa\	.
*Xrep	*Xrep	*	*
=23	=23	=23	=23
*rep	*rep	*	*
8F 8FF/	8FF\	8cccL 8aa\	.
8fL 8c 8A\	4.ryy	16fffL 16ff\	.
.	.	16eeeJJ 16ee\	.
8f 8c 8A\	.	16dddLL 16dd\	.
.	.	16ccc 16cc\	.
8fJ 8c 8A\	.	16bb- 16b-\	.
.	.	16aaJJ 16a\	.
*Xrep	*Xrep	*	*
*v	*v	*	*
=24	=24	=24
8cL 8B- 8G\	16.ggLL 16.g\	.
.	32ff#XK 32f#X\	.
8cJ 8B- 8G\	16.gg 16.g\	.
.	32dddJJk 32dd\	.
!LO:TX:a:t=P:problem=mixed beam	!	!
8CL 8CC/	8.cccL 8.cc\	.
8eJ 8c 8G\	.	.
.	16eeJk 16e\	.
!!LO:LB:g=original
=25	=25	=25
8FL 8FF\	8ggL 8g\	.
8c 8A 8F\	8ffJ 8f\	.
8c 8A 8F\	4ff 4f/	.
8cJ 8A 8F\	.	.
=26:|!|:	=26:|!|:	=26:|!|:
*>D	*>D	*>D
8C 8CC/	8gg 8ee 8g\	.
8cL 8C\	4.gg 4.ee 4.g\	.
8d-X 8D-X\	.	.
8cJ 8C\	.	.
=27	=27	=27
8F 8FF/	8aa 8ff 8a\	.
8fL 8F\	4.aa 4.ff 4.a\	.
8e 8E\	.	.
8fJ 8F\	.	.
=28	=28	=28
8D/L	8bb-L 8ff 8b-\	.
8B-/	8bb- 8ff 8b-\	.
8D-X/	8bbn 8ff 8bn\	.
8G/J	8bbJ 8ff 8b\	.
=29	=29	=29
*^	*	*
4G/	4C\	4ccc 4cc\	.
4r	4ryy	16ccc\LL	.
.	.	16bb-\	.
.	.	16aa\	.
.	.	16bb-\JJ	.
*v	*v	*	*
=30	=30	=30
8FL 8FF\	8cccL 8aa\	.
8f 8c 8A\	8ccc 8aa\	.
8f 8c 8A\	8.fff 8.ff\	.
8fJ 8c 8A\	.	.
.	16eeeJk 16ee\	.
=31	=31	=31
*rep	*	*
!	!LO:N:vis=8	!
8FL 8FF\	8.dddL 8.dd\	.
8f 8c 8A\	.	.
.	16cccJk 16cc\	.
8f 8c 8A\	16bb-LL 16b-\	.
.	16aa 16a\	.
8fJ 8c 8A\	16gg 16g\	.
.	16ffJJ 16f\	.
*Xrep	*	*
=32	=32	=32
8C\L	16.eeLL 16.e\	.
.	32ddK 32d\	.
8cJ 8B- 8G\	16.ee 16.e\	.
.	32dddJJk 32dd\	.
8C\L	8.cccL 8.cc\	.
8cJ 8B- 8G\	.	.
.	16eeJk 16e\	.
=33	=33	=33
8F\L	8ggL 8g\	.
8cJ 8A\	8ffJ 8f\	.
8c 8A 8F\	8ff 8f\	.
!	!LO:TX:b:t=Mazur da Capo	!
8r	8r	.
=:|!	=:|!	=:|!
*-	*-	*-
!!!system-decoration: {s1,s2}
!!!ENC: Marta Lawrence
!!!END: 2021-06-03
!!!ENC: Berenika Jozajtis
!!!END: 2021-04-24
